Obsidian-SemiLight/actions/22s/tools-media-optical-copy.svg

<svg viewBox="0 0 22 22" xmlns="http://www.w3.org/2000/svg"><path d="m11 3c-4.432 0-8 3.568-8 8s3.568 8 8 8c.692084 0 1.360349-.096052 2-.259766v-1.033203c-.633753.187534-1.303833.292969-2 .292969-3.878 0-7-3.122-7-7s3.122-7 7-7 7 3.122 7 7c0 .696167-.105435 1.366247-.292969 2h1.033203c.163714-.639651.259766-1.307916.259766-2 0-4.432-3.568-8-8-8zm0 2c-3.323996 0-6 2.676-6 6h3c0-1.662 1.3380018-3 3-3zm0 4c-1.1079987 0-2 .892-2 2s.8920013 2 2 2c1.107999 0 2-.892 2-2s-.892001-2-2-2zm0 1c.553999 0 1 .446 1 1s-.446001 1-1 1-1-.446-1-1 .446001-1 1-1zm3 1c0 .773297-.29821 1.469123-.775391 2h3.427735c.220411-.626106.347656-1.296656.347656-2zm-1 2.224609c-.530877.477181-1.226704.775391-2 .775391v3c.703343 0 1.373894-.127245 2-.347656zm3.5.775391c-1.385 0-2.5 1.115-2.5 2.5s1.115 2.5 2.5 2.5 2.5-1.115 2.5-2.5-1.115-2.5-2.5-2.5zm0 1c.831 0 1.5.669 1.5 1.5s-.669 1.5-1.5 1.5-1.5-.669-1.5-1.5.669-1.5 1.5-1.5zm0 1c-.277 0-.5.223-.5.5s.223.5.5.5.5-.223.5-.5-.223-.5-.5-.5z" fill="#4d4d4d"/></svg>

<svg xmlns="http://www.w3.org/2000/svg" viewBox="0 0 22 22">
  <defs id="defs3051">
    <style type="text/css" id="current-color-scheme">
      .ColorScheme-Text {
        color:#4d4d4d;
      }
      </style>
  </defs>
 <path 
    style="fill:currentColor;fill-opacity:1;stroke:none" 
    d="M 11 3 C 6.568 3 3 6.568 3 11 C 3 15.432 6.568 19 11 19 C 11.692084 19 12.360349 18.903948 13 18.740234 L 13 17.707031 C 12.366247 17.894565 11.696167 18 11 18 C 7.122 18 4 14.878 4 11 C 4 7.122 7.122 4 11 4 C 14.878 4 18 7.122 18 11 C 18 11.696167 17.894565 12.366247 17.707031 13 L 18.740234 13 C 18.903948 12.360349 19 11.692084 19 11 C 19 6.568 15.432 3 11 3 z M 11 5 C 7.676004 5 5 7.676 5 11 L 8 11 C 8 9.338 9.3380018 8 11 8 L 11 5 z M 11 9 C 9.8920013 9 9 9.892 9 11 C 9 12.108 9.8920013 13 11 13 C 12.107999 13 13 12.108 13 11 C 13 9.892 12.107999 9 11 9 z M 11 10 C 11.553999 10 12 10.446 12 11 C 12 11.554 11.553999 12 11 12 C 10.446001 12 10 11.554 10 11 C 10 10.446 10.446001 10 11 10 z M 14 11 C 14 11.773297 13.70179 12.469123 13.224609 13 L 16.652344 13 C 16.872755 12.373894 17 11.703344 17 11 L 14 11 z M 13 13.224609 C 12.469123 13.70179 11.773296 14 11 14 L 11 17 C 11.703343 17 12.373894 16.872755 13 16.652344 L 13 13.224609 z M 16.5 14 C 15.115 14 14 15.115 14 16.5 C 14 17.885 15.115 19 16.5 19 C 17.885 19 19 17.885 19 16.5 C 19 15.115 17.885 14 16.5 14 z M 16.5 15 C 17.331 15 18 15.669 18 16.5 C 18 17.331 17.331 18 16.5 18 C 15.669 18 15 17.331 15 16.5 C 15 15.669 15.669 15 16.5 15 z M 16.5 16 C 16.223 16 16 16.223 16 16.5 C 16 16.777 16.223 17 16.5 17 C 16.777 17 17 16.777 17 16.5 C 17 16.223 16.777 16 16.5 16 z "
    class="ColorScheme-Text"
    />  
</svg>
